X: 12791
T: Fear A' Bhàta
R: waltz
M: 3/4
K: Bminor
B4 c2|d6|d4 a2|f2 e2 d2|c6|
e6|f4 B2|B6|B4 d2|c4 B2|
A6|F6|F4 A2|B6|B6|
A4 B2|d6|e6|b4 a2|f6|
e4 c2|d4 c2|B6|B6||

